img/menu-button.svg

<svg width="38" height="47" viewBox="0 0 38 47" fill="none" xmlns="http://www.w3.org/2000/svg">
<path d="M6.6875 8.4375H27.3125M6.6875 15H27.3125M6.6875 21.5625H27.3125" stroke="white" stroke-width="1.5" stroke-linecap="round" stroke-linejoin="round"/>
<path d="M8.722 34.42L8.862 32.95H8.792L8.26 34.294L5.712 38.718H5.362L2.66 34.28L2.156 32.95H2.086L2.282 34.406V41H1.19V31.2H2.058L5.124 36.212L5.586 37.304H5.614L6.048 36.184L8.974 31.2H9.884V41H8.722V34.42ZM12.2642 31.2H17.5982V32.236H13.4262V35.442H17.2482V36.478H13.4262V39.964H17.6682V41H12.2642V31.2ZM21.5341 34.588L20.7781 33.174H20.7221L20.8621 34.588V41H19.7701V31.046H20.3861L25.0761 37.584L25.8041 38.928H25.8741L25.7201 37.584V31.2H26.8121V41.154H26.1961L21.5341 34.588ZM34.818 31.2H35.938V37.738C35.938 38.326 35.8587 38.8347 35.7 39.264C35.5507 39.6933 35.3313 40.048 35.042 40.328C34.762 40.5987 34.4213 40.7993 34.02 40.93C33.6187 41.0607 33.1753 41.126 32.69 41.126C31.5327 41.126 30.66 40.8647 30.072 40.342C29.484 39.8193 29.19 39.026 29.19 37.962V31.2H30.352V37.416C30.352 37.9107 30.3987 38.3307 30.492 38.676C30.5947 39.012 30.744 39.2873 30.94 39.502C31.136 39.7073 31.3787 39.8567 31.668 39.95C31.9667 40.0433 32.312 40.09 32.704 40.09C33.46 40.09 34.0013 39.8847 34.328 39.474C34.6547 39.054 34.818 38.368 34.818 37.416V31.2Z" fill="white"/>
</svg>

<svg fill="none" xmlns="http://www.w3.org/2000/svg" viewBox="0 0 38 47">
    <path d="M6.69 8.44H27.3M6.7 15h20.6M6.7 21.56h20.6" stroke="#fff" stroke-width="1.5" stroke-linecap="round" stroke-linejoin="round"/>
    <path d="m8.72 34.42.14-1.47H8.8l-.53 1.34-2.55 4.43h-.35l-2.7-4.44-.5-1.33H2.1l.2 1.46V41H1.2v-9.8h.87l3.06 5.01.47 1.1h.02l.44-1.13 2.92-4.98h.91V41H8.72zm3.54-3.22h5.34v1.04h-4.17v3.2h3.82v1.04h-3.82v3.48h4.24V41h-5.4zm9.27 3.39-.75-1.42h-.06l.14 1.42V41h-1.09v-9.95h.62l4.69 6.53.72 1.35h.07l-.15-1.35V31.2h1.1v9.95h-.62zm13.29-3.39h1.12v6.54q0 .89-.24 1.52-.23.65-.66 1.07a3 3 0 0 1-1.02.6q-.6.2-1.33.2-1.74 0-2.62-.79-.88-.78-.88-2.38V31.2h1.16v6.22q0 .74.14 1.26.15.5.45.82.3.3.73.45.45.14 1.03.14 1.14 0 1.63-.62.48-.63.49-2.05z" fill="#fff"/>
</svg>
